X:1
T:The Judgment Day Is Coming
T:Thomas Benjamin Mosley
T:The Judgment Day Is Coming
T:Public Domain
T:Public Domain
C:Thomas Benjamin Mosley
Z:Public Domain
%%score ( 1 2 ) ( 3 4 )
L:1/8
M:4/4
K:G
V:1 treble 
V:2 treble 
V:3 bass 
V:4 bass 
V:1
 D2 | [GB]3 [FB] [EB]2 [FB]2 | [GB] [DB]3- [DB]2 [GB]2 | [Ad]3 [Gd] [Fd]2 (GA) | [GB]6 D2 | %5
w: 1.~The|ment day is com-|ing, We * warn|you faith- ful- ly; *|shel- ter|
w: 2.~The|and rocks hold per-|il And * dan-|ger, soul, for thee; *|Je- sus|
 [GB]3 [FB] [EB]2 [FB]2 | [GB] [DB]3- [DB]2 [DB]2 | [DA]3 [DA] [^CA]2 [CA]2 | D6 D2 | %9
w: in Je- sus; Be|saved e- * ter-|nal- ly. We plead|with fer-|
w: thy an- chor, And|find se- * cu-|ri- ty; When thou|art called|
 [Dc]3 [Dc] [Dc]2 [Dc]2 | [DB] [DB]3- [DB]2 [DB]2 | [^DB]3 [DB] [EB]2 [FA]2 | [E^G]6 [=FG]2 | %13
w: ing: From wrath and|per- il * flee,|And find in Christ|a ref-|
w: ment, What then will|be thy * plea?|The blood of Je-|sus on-|
 [Ee]3 [Fe] [Ge]2 [Ae]2 | [Bd] [GB]3- [GB]2 [DG]2 | [EG]3 [^CG] [DG]2 [DF]2 | [DG]6 || %17
w: uge, A hid- ing|place for * thee.|||
w: ly Will then a-|vail for * thee.|||
"^Refrain" D2 | [Dc]3 [Dc] [Dc]2 [Dc]2 | [DB] [DB]3- [DB]2 [DB]2 | [^DB]3 [DB] [EB]2 [FA]2 | %21
w: ||||
w: ||||
 [E^G]6 [=FG]2 | [Ee]3 [Fe] [Ge]2 [Ae]2 | [Bd] [GB]3- [GB]2 [DG]2 | [EG]3 [^CG] [DG]2 [DF]2 | %25
w: ||||
w: ||||
 [DG]6 |] %26
w: |
w: |
V:2
 D2 | x8 | x8 | x6 d2 | x6 D2 | x8 | x8 | x8 | D6 D2 | x8 | x8 | x8 | x8 | x8 | x8 | x8 | x6 || %17
w: judg-|||A|find||||vent plead-|||||||||
w: shoals|||On|cast||||to judg-|||||||||
 D2 | x8 | x8 | x8 | x8 | x8 | x8 | x8 | x6 |] %26
w: |||||||||
w: |||||||||
V:3
 D,2 | [G,,G,B,]3 [G,,G,A,] [G,,G,]2 [G,,G,A,]2 | [G,,G,B,] [G,,G,]3- [G,,G,]2 G,2 | %3
w: ~|~ ~ ~ ~|~ ~ * ~|
 [D,C]3 [D,B,] [D,A,]2 (B,C) | [G,D]6 D,2 | [G,,G,B,]3 [G,,G,A,] [G,,G,]2 [G,,G,A,]2 | %6
w: ~ ~ ~ ~ *|~ ~|~ ~ ~ ~|
 [G,,G,B,] [G,,G,]3- [G,,G,]2 [G,,G,]2 | [A,,F,]3 [A,,F,] [A,,E,]2 [A,,G,]2 | [D,F,]6 F,2 | %9
w: ~ ~ * ~|~ ~ ~ ~|~ ~|
 [D,F,]3 [E,G,] [F,A,]2 [D,F,]2 | G, G,3- G,2 [G,,G,]2 | [B,,F,]3 [B,,F,] [^C,F,]2 [^D,B,]2 | %12
w: ~ ~ ~ ~|~ ~ * ~|~ ~ ~ ~|
 [E,B,]6 [D,B,]2 | [C,C]3 [D,C] [E,C]2 [F,C]2 | [G,B,D] [G,D]3- [G,D]2 [G,B,]2 | %15
w: ~ ~|~ ~ ~ ~|~ The * day|
 [E,^C]3 [_E,^A,] [D,B,]2 [D,=C]2 | [G,,G,B,]6 || F,2 | [D,F,]3 [E,G,] [F,A,]2 [D,F,]2 | %19
w: of judg- ment hast-|ens;|What|thy sen- tence be?|
 G, G,3- G,2 [G,,G,]2 | [B,,F,]3 [B,,F,] [^C,F,]2 [^D,B,]2 | [E,B,]6 [D,B,]2 | %22
w: Re- deemed * and|Je- sus, Or lost|e- ter-|
 [C,C]3 [D,C] [E,C]2 [F,C]2 | [G,B,D] [G,D]3- [G,D]2 [G,B,]2 | [E,^C]3 [_E,^A,] [D,B,]2 [D,=C]2 | %25
w: nal- ly? * *|||
 [G,,G,B,]6 |] %26
w: |
V:4
 D,2 | x8 | x6 G,2 | x6 D,2 | x6 D,2 | x8 | x8 | x8 | x6 F,2 | x8 | G, G,3- G,2 x2 | x8 | x8 | x8 | %14
w: ~||~|~|~||||~||~ ~ *||||
 x8 | x8 | x6 || F,2 | x8 | G, G,3- G,2 x2 | x8 | x8 | x8 | x8 | x8 | x6 |] %26
w: |||shall||saved thro’ *|||||||

